src/renderer/src/assets/wavy-lines.svg

<svg xmlns="http://www.w3.org/2000/svg" opacity=".3" viewBox="0 0 1422 800"><defs><linearGradient id="a" x1="50%" x2="50%" y1="0%" y2="100%"><stop offset="0%" stop-color="hsl(206, 75%, 49%)"/><stop offset="100%" stop-color="hsl(331, 90%, 56%)"/></linearGradient></defs><g fill="none" stroke="url(#a)" stroke-linecap="round"><path d="M0 448q355.5-548 711-48t711 48" opacity=".05"/><path d="M0 420q355.5-520 711-20t711 20" opacity=".11"/><path d="M0 392q355.5-492 711 8t711-8" opacity=".18"/><path d="M0 364q355.5-464 711 36t711-36" opacity=".24"/><path d="M0 336q355.5-436 711 64t711-64" opacity=".3"/><path d="M0 308q355.5-408 711 92t711-92" opacity=".37"/><path d="M0 280q355.5-380 711 120t711-120" opacity=".43"/><path d="M0 252q355.5-352 711 148t711-148" opacity=".49"/><path d="M0 224q355.5-324 711 176t711-176" opacity=".56"/><path d="M0 196q355.5-296 711 204t711-204" opacity=".62"/><path d="M0 168q355.5-268 711 232t711-232" opacity=".68"/><path d="M0 140q355.5-240 711 260t711-260" opacity=".75"/><path d="M0 112q355.5-212 711 288t711-288" opacity=".81"/><path d="M0 84q355.5-184 711 316t711-316" opacity=".87"/><path d="M0 56q355.5-156 711 344t711-344" opacity=".94"/></g></svg>

<svg xmlns="http://www.w3.org/2000/svg" viewBox="0 0 1422 800" opacity="0.3">
  <defs>
    <linearGradient x1="50%" y1="0%" x2="50%" y2="100%" id="oooscillate-grad">
      <stop stop-color="hsl(206, 75%, 49%)" stop-opacity="1" offset="0%"></stop>
      <stop stop-color="hsl(331, 90%, 56%)" stop-opacity="1" offset="100%"></stop>
    </linearGradient>
  </defs>
  <g stroke-width="1" stroke="url(#oooscillate-grad)" fill="none" stroke-linecap="round">
    <path d="M 0 448 Q 355.5 -100 711 400 Q 1066.5 900 1422 448" opacity="0.05"></path>
    <path d="M 0 420 Q 355.5 -100 711 400 Q 1066.5 900 1422 420" opacity="0.11"></path>
    <path d="M 0 392 Q 355.5 -100 711 400 Q 1066.5 900 1422 392" opacity="0.18"></path>
    <path d="M 0 364 Q 355.5 -100 711 400 Q 1066.5 900 1422 364" opacity="0.24"></path>
    <path d="M 0 336 Q 355.5 -100 711 400 Q 1066.5 900 1422 336" opacity="0.30"></path>
    <path d="M 0 308 Q 355.5 -100 711 400 Q 1066.5 900 1422 308" opacity="0.37"></path>
    <path d="M 0 280 Q 355.5 -100 711 400 Q 1066.5 900 1422 280" opacity="0.43"></path>
    <path d="M 0 252 Q 355.5 -100 711 400 Q 1066.5 900 1422 252" opacity="0.49"></path>
    <path d="M 0 224 Q 355.5 -100 711 400 Q 1066.5 900 1422 224" opacity="0.56"></path>
    <path d="M 0 196 Q 355.5 -100 711 400 Q 1066.5 900 1422 196" opacity="0.62"></path>
    <path d="M 0 168 Q 355.5 -100 711 400 Q 1066.5 900 1422 168" opacity="0.68"></path>
    <path d="M 0 140 Q 355.5 -100 711 400 Q 1066.5 900 1422 140" opacity="0.75"></path>
    <path d="M 0 112 Q 355.5 -100 711 400 Q 1066.5 900 1422 112" opacity="0.81"></path>
    <path d="M 0 84 Q 355.5 -100 711 400 Q 1066.5 900 1422 84" opacity="0.87"></path>
    <path d="M 0 56 Q 355.5 -100 711 400 Q 1066.5 900 1422 56" opacity="0.94"></path>
  </g>
</svg>
